X: 6
T: The Kinnegad Slashers
R: jig
M: 6/8
L: 1/8
K: Dmaj
A|d>ed dAF|A>BA ABc|d>ed dAF|E<ee e2f|
d>ed dAF|ABA Aag|fef dBA|B<dd d2:|
|:A|d>fa afd|c>de ecA|d<fa afd|f<aa a2A|
d<fa afd|c>de eag|fef dBA|B<dd d2:|
|:(3A/B/c/|dAF dAF|A>BA ABc|dAF dAF|E<ee e2f|
dAF dAF|A>BA Aag|fef dBA|B<dd d2:|]


Tune 1258	Setting 14567

